!!!!SEGMENT: Lhe2002-Dum_complerentur.krn
!!!id: Lhe2002
!!!AGN: Motet
!!!SCT: Picker (1987)
!!!voices: 4
!!!COM: Jean Lhéritier
!!!OTL: Dum complerentur
**kern	**kern	**kern	**kern
*part4	*part3	*part2	*part1
*staff4	*staff3	*staff2	*staff1
*I"Bassus	*I"Tenor	*I"Altus	*I"Superius
*I'B	*I'T	*I'A	*I'S
*clefF4	*clefGv2	*clefGv2	*clefG2
*k[b-]	*k[b-]	*k[b-]	*k[b-]
*F:	*F:	*F:	*F:
*M2/1	*M2/1	*M2/1	*M2/1
*met(C|)	*met(C|)	*met(C|)	*met(C|)
!!Section: Prima pars: Dum complerentur
!!!OMD: Prima pars: Dum complerentur
=1	=1	=1	=1
1.G	1.G	1.d	1.g
2G	2A	2d	2g
=2	=2	=2	=2
1G	1B-y	1d	1g
1C	1c	1e	1g
=3	=3	=3	=3
0D	0A	0d	0f
=4	=4	=4	=4
1BB-y	1d	1f	1b-y
[1F	[1c	[1f	[1a
=5	=5	=5	=5
1F]	1c]	1f]	1a]
1D	[1d	1f	1a
=6	=6	=6	=6
1F	2d]	1f	1a
.	2c	.	.
1G	1B-y	1d	[1g
=7	=7	=7	=7
0D	0A	0d	2g]
.	.	.	4f#i
.	.	.	4e
.	.	.	1f#i
=8	=8	=8	=8
0C	1.c	0e	0g
.	2c	.	.
=9	=9	=9	=9
1D	1A	1d	1f
1BB-y	1d	[1f	[1b-y
=10	=10	=10	=10
0F	[0c	1f]	2b-]
.	.	.	4a
.	.	.	4g
.	.	1f	1a
=11	=11	=11	=11
1C	1c]	1e	2g
.	.	.	2.a
1D	1A	[1d	.
.	.	.	4g
.	.	.	[2f
=12	=12	=12	=12
1BB-y	1B-y	1d]	2f]
.	.	.	4e
.	.	.	4d
[1C	1G	[1c	2e
.	.	.	4c
.	.	.	4d
=13	=13	=13	=13
1C]	2r	2c]	4e
.	.	.	4f
.	1c	4B-y	2.g
.	.	4A	.
1C	.	1G	.
.	.	.	4f
.	4B-y	.	[2f
.	4A	.	.
=14	=14	=14	=14
1C	2.G	1c	2f]
.	.	.	2e
.	4A	.	.
[1BB-y	1B-y	1d	2.f
.	.	.	4e
=15	=15	=15	=15
1BB-]	1d	0f	4d
.	.	.	4B-y
.	.	.	1b-y
[1F	[1c	.	.
.	.	.	4a
.	.	.	4g
=16	=16	=16	=16
1F]	1c]	1f	1a
[1G	[1B-y	2d	2.b-y
.	.	[2e	.
.	.	.	4a
=17	=17	=17	=17
2G]	1B-]	2e]	1.g
2F	.	1d	.
1E	1G	.	.
.	.	2c#i	4f
.	.	.	4e
=18	=18	=18	=18
1.D	1A	1d	1f
.	2r	1A	1f
2D	2d	.	.
=19	=19	=19	=19
2E	2c	2r	2g
2F	2c	2f	2a
1G	1B-y	2d	1b-y
.	.	2e	.
=20	=20	=20	=20
1F	2c	1f	2r
.	1d	.	2a
2G	.	2B-y	2b-y
2D	2d	2f	[2a
=21	=21	=21	=21
2E	2B-y	1e	2a]
2C	2c	.	1g
1D	1A	[1d	.
.	.	.	2f#i
=22	=22	=22	=22
2r	0G	2d]	1g
1G	.	4c	.
.	.	4B-y	.
.	.	1B-y	1g
2G	.	.	.
=23	=23	=23	=23
2G	2r	1A	0r
2F	1d	.	.
1B-y	.	1G	.
.	2d	.	.
=24	=24	=24	=24
1A	2d	0r	0r
.	2c	.	.
1D	1f	.	.
=25	=25	=25	=25
2r	1e	0r	0r
1G	.	.	.
.	1A	.	.
2F	.	.	.
=26	=26	=26	=26
1B-y	2r	0r	0r
.	1d	.	.
[1A	.	.	.
.	2c	.	.
=27	=27	=27	=27
2A]	1f	0r	0r
4G	.	.	.
4F	.	.	.
2G	1e	.	.
2A	.	.	.
=28	=28	=28	=28
2F	2d	0r	0r
1G	2.e	.	.
.	4d	.	.
2F	[2d	.	.
=29	=29	=29	=29
1E	2d]	0r	2r
.	2c#i	.	2g
1D	1d	.	2g
.	.	.	2f
=30	=30	=30	=30
0r	1G	2r	1b-y
.	.	2d	.
.	1r	2d	1a
.	.	2c	.
=31	=31	=31	=31
0r	0r	1f	2d
.	.	.	1a
.	.	1e	.
.	.	.	2g
=32	=32	=32	=32
1r	0r	1A	1cc
2r	.	[1d	1b-y
[2G	.	.	.
=33	=33	=33	=33
2G]	1r	2d]	1a
2F	.	2d	.
1B-y	2r	1d	2.f
.	[2d	.	.
.	.	.	4g
=34	=34	=34	=34
1A	2d]	1e	1a
.	2c	.	.
1D	1f	2d	2r
.	.	2A	[2a
=35	=35	=35	=35
2r	1e	2c	2a]
2C	.	2c	2g
2.D	2A	2F	2f
.	2d	[2f	[2a
4E	.	.	.
=36	=36	=36	=36
2F	2c	4f]	4a]
.	.	4e	4g
2G	2B-y	2d	1g
1D	1A	[1d	.
.	.	.	2f#i
=37	=37	=37	=37
1G	2.G	2d]	1g
.	.	1B-y	.
.	4A	.	.
1G	4B-y	.	2r
.	4c	.	.
.	[2B-y	4A	2g
.	.	4G	.
=38	=38	=38	=38
1E	4B-]	1G	2g
.	4A	.	.
.	1G	.	2g
1D	.	2r	1a
.	2F#i	2d	.
=39	=39	=39	=39
0r	1G	2d	1b-y
.	.	2d	.
.	1r	1e	1g
=40	=40	=40	=40
0r	0r	1f	2r
.	.	.	1a
.	.	2d	.
.	.	[2d	2a
=41	=41	=41	=41
0r	0r	2d]	2a
.	.	2d	2f
.	.	2d	[1b-y
.	.	2B-y	.
=42	=42	=42	=42
0r	0r	1.e-i	2b-]
.	.	.	2g
.	.	.	1g
.	.	2c	.
=43	=43	=43	=43
0r	0r	1c	1.cc
.	.	[1f	.
.	.	.	2b-y
=44	=44	=44	=44
0r	0r	2f]	2a
.	.	2e	2g
.	.	2d	2f
.	.	2c	[2g
=45	=45	=45	=45
0r	1r	2B-y	2g]
.	.	1d	2f
.	[1A	.	1e
.	.	2c#i	.
=46	=46	=46	=46
1.D	2A]	2d	2d
.	2A	1d	1f
.	2A	.	.
2D	2F	2d	2f
=47	=47	=47	=47
2D	1.B-y	2d	2f
2BB-y	.	2d	2f
[1E-i	.	2.G	[1g
.	2G	.	.
.	.	4A	.
=48	=48	=48	=48
2E-]	1G	4B-y	2g]
.	.	4G	.
2C	.	1g	4f
.	.	.	4e
2C	[1c	.	2e
[2F	.	[2f	[2a
=49	=49	=49	=49
2F]	2c]	2f]	2a]
2G	2B-y	2e	1g
1D	1A	[1d	.
.	.	.	2f#i
=50	=50	=50	=50
2GG	1G	2d]	0g
1G	.	2B-y	.
.	2r	[1B-y	.
2G	[2d	.	.
=51	=51	=51	=51
1G	2d]	1B-]	0r
.	2d	.	.
2F	1d	1r	.
2D	.	.	.
=52	=52	=52	=52
1.F	2c	0r	0r
.	2A	.	.
.	[1c	.	.
4E	.	.	.
4D	.	.	.
=53	=53	=53	=53
2C	2c]	0r	0r
2G	4B-y	.	.
.	4A	.	.
2G	2G	.	.
2G	2d	.	.
=54	=54	=54	=54
1.B-y	2d	0r	0r
.	2d	.	.
.	1f	.	.
2A	.	.	.
=55	=55	=55	=55
2G	2e	0r	0r
2F	1d	.	.
1E	.	.	.
.	2c#i	.	.
=56	=56	=56	=56
0D	0d	2r	1a
.	.	1f	.
.	.	.	2a
.	.	2f	2a
=57	=57	=57	=57
0r	0r	2g	1b-y
.	.	2g	.
.	.	1f	2a
.	.	.	[2cc
=58	=58	=58	=58
0r	0r	2d	2cc]
.	.	2e	1b-y
.	.	1c	.
.	.	.	2a
=59	=59	=59	=59
0r	0r	0B-y	1b-y
.	.	.	2r
.	.	.	2f
=60	=60	=60	=60
0r	0r	2r	2f
.	.	2B-y	2f
.	.	2B-y	[1b-y
.	.	2B-y	.
=61	=61	=61	=61
0r	0r	1.e-i	2b-]
.	.	.	2a
.	.	.	2g
.	.	2d	2f
=62	=62	=62	=62
0r	0r	2c	2e
.	.	2B-y	2d
.	.	2A	2f
.	.	2G	[2g
=63	=63	=63	=63
0r	0r	2B-y	4g]
.	.	.	4f
.	.	2.c	4e
.	.	.	4d
.	.	.	4e
.	.	4B-y	4d
.	.	4A	[2g
.	.	4G	.
=64	=64	=64	=64
0r	1r	1A	2g]
.	.	.	2f#i
.	1d	1G	1g
=65	=65	=65	=65
1G	2d	2r	2r
.	2d	2g	2b-y
2G	[1e	2g	2b-y
2G	.	2g	2b-y
=66	=66	=66	=66
1.A	2e]	1c	1.cc
.	2c	.	.
.	[1f	2A	.
2F	.	[2d	2a
=67	=67	=67	=67
1B-y	2f]	4d]	2b-y
.	.	4e	.
.	2e	4f	1dd
.	.	4d	.
1B-y	1d	4g	.
.	.	[2.f	.
.	.	.	4cc
.	.	.	4b-y
=68	=68	=68	=68
2F	2c	2f]	2a
2G	2B-y	2e	2.b-y
1F	1c	1f	.
.	.	.	4a
.	.	.	4a
.	.	.	8gL
.	.	.	8aJ
=	=	=	=
*M3/1	*M3/1	*M3/1	*M3/1
*met(3)	*met(3)	*met(3)	*met(3)
0BB-y	0B-y	0d	0b-y
1r	1r	1r	1r
=69	=69	=69	=69
1B-y	1d	1f	1b-y
1B-y	1d	1f	1b-y
1B-y	1d	1f	1b-y
=70	=70	=70	=70
0F	0c	0f	0a
1F	1c	1f	1a
=71	=71	=71	=71
1D	0d	0f	1f
1BB-y	.	.	0b-y
[1F	[1c	[1f	.
=72	=72	=72	=72
1F]	1c]	1f]	0a
0G	0B-y	1.d	.
.	.	.	1g
.	.	2e	.
=73	=73	=73	=73
1F	1c	1f	1a
1BB-y	1d	1f	1b-y
1BB-y	1d	1f	1b-y
=74	=74	=74	=74
0F	0c	0f	0a
1G	1B-y	[1d	1g
=75	=75	=75	=75
1D	0A	1d]	1f
0E	.	1B-y	0g
.	1G	1c	.
=76	=76	=76	=76
1D	1A	1d	1f
1BB-y	1d	1f	1b-y
1F	1c	1f	1a
=77	=77	=77	=77
1G	1B-y	1d	0g
0D	0A	0d	.
.	.	.	1f#i
=	=	=	=
*M2/1	*M2/1	*M2/1	*M2/1
*met(C|)	*met(C|)	*met(C|)	*met(C|)
0G	0G	1r	1g
.	.	[1d	2r
.	.	.	[2b-y
=78	=78	=78	=78
0r	0r	1d]	2b-]
.	.	.	2a
.	.	1e	1g
=79	=79	=79	=79
0r	1.B-y	2d	[0f
.	.	2.f	.
.	.	4e	.
.	2B-y	4d	.
.	.	4c	.
=80	=80	=80	=80
1r	1B-y	1d	0f]
[1F	2.A	1c	.
.	4B-y	.	.
=81	=81	=81	=81
2F]	2c	0r	0r
2F	2.d	.	.
1F	.	.	.
.	4c	.	.
.	4B-y	.	.
.	4A	.	.
=82	=82	=82	=82
1E	2G	0r	0r
.	2.c	.	.
2D	.	.	.
.	4B-y	.	.
2BB-y	[2B-y	.	.
=83	=83	=83	=83
1C	2B-]	1c	1r
.	2A	.	.
1BB-y	1B-y	1d	1f
=84	=84	=84	=84
0r	0r	1e	1g
.	.	1f	1a
=85	=85	=85	=85
0r	1r	2d	1b-y
.	.	1e	.
.	2r	.	2g
.	[2F	2c	[2a
=86	=86	=86	=86
2r	2F]	2c	2a]
1BB-y	2F	2r	2f
.	1B-y	2r	2f
2BB-y	.	[2B-y	2f
=87	=87	=87	=87
1.E-X	2B-y	2B-]	1.g
.	2G	2B-y	.
.	1G	1e-X	.
2C	.	.	2g
=88	=88	=88	=88
1C	1c	1e-i	1g
[1D	2r	[1d	[1f
.	[2A	.	.
=89	=89	=89	=89
2D]	2A]	0d_	1f]
2D	2A	.	.
2G	2B-y	.	1r
2F	2A	.	.
=90	=90	=90	=90
2G	2B-y	1d]	1r
2G	2B-y	.	.
[1D	1A	2r	[1f
.	.	[2d	.
=91	=91	=91	=91
1D]	1A	2d]	2f]
.	.	2d	2f
1r	1r	2e	2g
.	.	2d	2f
=92	=92	=92	=92
2r	1c	2e	2g
2C	.	2e	2g
1D	1A	1d	1f
=93	=93	=93	=93
4BB-y	1d	1f	1b-y
4C	.	.	.
4D	.	.	.
4E	.	.	.
2F	2c	2f	2a
2G	2B-y	2d	[2g
=94	=94	=94	=94
1D	1A	1d	2g]
.	.	.	2f#i
2r	2G	2r	1g
2G	2G	2B-y	.
=95	=95	=95	=95
2G	1B-y	2.d	2r
2G	.	.	2b-y
.	.	4e	.
1F	1c	1f	2b-y
.	.	.	2a
=96	=96	=96	=96
2r	1B-y	2r	1b-y
2G	.	2d	.
2G	2r	2d	2r
2G	2B-y	2e	[2b-y
=97	=97	=97	=97
1F	1c	1f	2b-]
.	.	.	2a
4BB-y	1d	[1f	2b-y
4C	.	.	.
4D	.	.	[2a
4E	.	.	.
=98	=98	=98	=98
2F	2c	2f]	4a]
.	.	.	4g
2G	2B-y	2d	1g
1D	1A	1d	.
.	.	.	2f#i
=	=	=	=
00GG	00G	00d	00g
=||	=||	=||	=||
*M2/1	*M2/1	*M2/1	*M2/1
*met(C|)	*met(C|)	*met(C|)	*met(C|)
!!Section: Secunda pars: Spiritus Domini
!!!OMD: Secunda pars: Spiritus Domini
1.G	0r	1r	0r
.	.	[1d	.
2F	.	.	.
=99	=99	=99	=99
2G	1r	2d]	2r
2A	.	2c	1a
1B-y	2r	1d	.
.	[2d	.	2g
=100	=100	=100	=100
1A	2d]	2.e	2a
.	2c	.	2cc
.	.	4f	.
1G	2.d	2g	1b-y
.	.	2G	.
.	4e	.	.
=101	=101	=101	=101
2r	1f	2d	1a
1A	.	2.c	.
.	1e	.	2r
.	.	4A	.
2G	.	2B-y	[2g
=102	=102	=102	=102
2.B-y	2.d	2G	2g]
.	.	2d	2f
4A	4c	.	.
2G	2B-y	2e	2g
2F	2A	[2d	[2a
=103	=103	=103	=103
1E	2B-y	2d]	4a]
.	.	.	4g
.	2G	2c	2g
[1D	1B-y	[1d	2f
.	.	.	[2g
=104	=104	=104	=104
1D]	1A	1d]	2g]
.	.	.	2f#i
2r	1G	[1B-y	[1g
[2G	.	.	.
=105	=105	=105	=105
2G]	2r	1B-]	1g]
2G	1d	.	.
2F	.	2r	1r
2D	2d	[2f	.
=106	=106	=106	=106
1F	2c	2f]	2r
.	2A	2f	1cc
1C	1c	2e	.
.	.	2c	2cc
=107	=107	=107	=107
2r	1G	1e	2b-y
1G	.	.	2g
.	2r	1d	1b-y
2G	[2d	.	.
=108	=108	=108	=108
2F	2d]	2r	1a
2D	2d	1f	.
2F	2c	.	2r
2F	2A	2f	[2cc
=109	=109	=109	=109
1C	2c	2e	2cc]
.	2c	2c	2cc
2r	1G	2e	2b-y
[2G	.	2e	2g
=110	=110	=110	=110
2G]	2r	1d	2b-y
2G	1d	.	2b-y
1B-y	.	1r	2f
.	2d	.	[2b-y
=111	=111	=111	=111
0F	1f	1c	2b-]
.	.	.	4a
.	.	.	4g
.	1c	2f	2a
.	.	2f	2a
=112	=112	=112	=112
1C	1e	2e	2g
.	.	1g	2cc
2G	2d	.	2b-y
2A	[2c	2e	2a
=113	=113	=113	=113
2F	2c]	2f	2a
2G	2B-y	2d	2.g
1D	1A	[1d	.
.	.	.	4f#i
.	.	.	4f#i
.	.	.	8eL
.	.	.	8f#iJ
=114	=114	=114	=114
1r	1G	1d]	1g
1G	1r	1r	1b-y
=115	=115	=115	=115
1F	1c	1f	1a
2r	1B-y	2d	1f
[2B-y	.	[2d	.
=116	=116	=116	=116
2B-]	2.G	2d]	1.b-y
2A	.	2d	.
.	4A	.	.
2G	4B-y	2d	.
.	4c	.	.
2F	[2d	[2f	2a
=117	=117	=117	=117
1B-y	4d]	4f]	2g
.	4e	4e	.
.	1f	4d	2f
.	.	4c	.
1G	.	2.B-y	1b-y
.	2e	.	.
.	.	4c	.
=118	=118	=118	=118
1.F	2f	1d	1.a
.	2F	.	.
.	2.A	[1c	.
4E	.	.	4g
4D	4B-y	.	4f
=119	=119	=119	=119
0C	0c	2c]	2e
.	.	4B-y	1f
.	.	4A	.
.	.	1G	.
.	.	.	2e
=120	=120	=120	=120
1r	1A	0F	2f
.	.	.	1a
1F	2r	.	.
.	2c	.	2a
=121	=121	=121	=121
1B-y	1d	2r	1f
.	.	1f	.
1B-y	1d	.	1b-y
.	.	2f	.
=122	=122	=122	=122
0F	1c	1f	2a
.	.	.	1a
.	[1f	1c	.
.	.	.	2a
=123	=123	=123	=123
1.B-y	2f]	1d	2f
.	2e	.	2f
.	2d	1f	2b-y
2A	2c	.	2f
=124	=124	=124	=124
2G	2B-y	2e	2g
2F	1A	1d	2a
1E	.	.	2b-y
.	2G	2c	2cc
=125	=125	=125	=125
1D	2A	2d	2f
.	2d	2B-y	2d
2r	2c	1A	2e
2D	2d	.	2f
=126	=126	=126	=126
2E	2B-y	2r	2g
2F	2A	2d	2a
2G	2G	2B-y	2d
2A	[2F	2c	[2a
=127	=127	=127	=127
2D	2F]	2d	2a]
1G	2B-y	2d	1b-y
.	2G	2G	.
2F	[2c	2A	[2a
=128	=128	=128	=128
1E	4c]	2B-y	2a]
.	4B-y	.	.
.	4A	2c	1g
.	4G	.	.
1D	1A	1d	.
.	.	.	2f#i
=129	=129	=129	=129
1G	0G	2r	0g
.	.	1d	.
2r	.	.	.
[2G	.	2B-y	.
=130	=130	=130	=130
2G]	1r	2e-i	0r
2F	.	1d	.
1G	2r	.	.
.	[2d	4c	.
.	.	4B-y	.
=131	=131	=131	=131
1F	2d]	1A	2r
.	2c	.	1a
1B-y	2d	1r	.
.	2d	.	2f
=132	=132	=132	=132
2r	2d	1r	2b-y
2G	2d	.	2b-y
2.c	2e	2r	1g
.	2e	2c	.
4c	.	.	.
=133	=133	=133	=133
2B-y	2d	2.g	1b-y
2G	2B-y	.	.
.	.	4g	.
2B-y	2d	2f	2b-y
2B-y	2d	2d	2b-y
=134	=134	=134	=134
0F	0c	2f	2a
.	.	2f	2f
.	.	2c	2a
.	.	2f	2a
=135	=135	=135	=135
2r	1c	2e	2g
1F	.	2.f	2.a
.	2A	.	.
.	.	4e	4g
2BB-y	2B-y	2d	[2f
=136	=136	=136	=136
1C	1G	1c	2f]
.	.	.	2e
[1F	[1F	[1A	1f
=137	=137	=137	=137
0F_	0F_	0A]	2r
.	.	.	1cc
.	.	.	2cc
=138	=138	=138	=138
1F]	1F]	1r	1cc
1r	1r	[1f	2.a
.	.	.	4f
=139	=139	=139	=139
0r	0r	2f]	2a
.	.	2f	2b-y
.	.	1f	1cc
=140	=140	=140	=140
0r	0r	2.e	2r
.	.	.	1cc
.	.	4c	.
.	.	2e	.
.	.	2f	2cc
=141	=141	=141	=141
0r	0r	2g	2b-y
.	.	1g	2.dd
.	.	.	4cc
.	.	2g	4b-y
.	.	.	4a
=142	=142	=142	=142
0r	1r	2e	2g
.	.	2f	1cc
.	1G	1d	.
.	.	.	2bni
=143	=143	=143	=143
1C	2G	2r	2cc
.	2G	2e	2g
2C	1c	2e	2g
2C	.	2e	2g
=144	=144	=144	=144
1F	2r	1.f	0a
.	2c	.	.
2r	2c	.	.
2F	2c	4e	.
.	.	4d	.
=145	=145	=145	=145
2F	1.f	1c	2r
2F	.	.	2cc
[1B-y	.	4B-y	2.dd
.	.	4c	.
.	2e	4d	.
.	.	4e	4cc
=146	=146	=146	=146
2B-]	2d	4f	2b-y
.	.	4g	.
2.F	2.c	2.f	1a
4G	4B-y	4e	.
2E	2G	4d	[2g
.	.	4c	.
=147	=147	=147	=147
1D	1A	1d	2g]
.	.	.	2f#i
1G	[1G	2r	[1g
.	.	2d	.
=148	=148	=148	=148
1r	1G]	2.B-y	1g]
.	.	4c	.
1G	1r	2d	1r
.	.	2d	.
=149	=149	=149	=149
2.E	0r	1G	0r
4F	.	.	.
2G	.	2r	.
2G	.	2d	.
=150	=150	=150	=150
1C	0r	2e	0r
.	.	2e	.
1G	.	2.d	.
.	.	4e	.
=151	=151	=151	=151
1A	0r	2f	0r
.	.	2e	.
1G	.	4e	.
.	.	4d	.
.	.	4c	.
.	.	4B-y	.
=152	=152	=152	=152
2F	0r	2A	0r
2D	.	2.f	.
1F	.	.	.
.	.	4e	.
.	.	[2d	.
=153	=153	=153	=153
1E	0r	2d]	2r
.	.	2c#i	2g
[1D	.	[1d	2f
.	.	.	2d
=154	=154	=154	=154
1D]	2r	1d]	2.f
.	2d	.	.
.	.	.	4g
1r	2c	1r	1a
.	2A	.	.
=155	=155	=155	=155
0r	2.c	0r	1g
.	4d	.	.
.	1e	.	2r
.	.	.	2g
=156	=156	=156	=156
0r	1d	0r	2a
.	.	.	2f
.	2r	.	2b-y
.	2d	.	[2a
=157	=157	=157	=157
1r	2c	1r	2a]
.	2B-y	.	1g
1D	2A	[1d	.
.	[2B-y	.	2f
=158	=158	=158	=158
2G	4B-]	1d]	2b-y
.	4G	.	.
2D	1d	.	1a
1E	.	2B-y	.
.	2c#i	2G	[2g
=159	=159	=159	=159
1D	1d	1A	2g]
.	.	.	2f#i
2r	2r	[1G	[1g
[2G	[2B-y	.	.
=160	=160	=160	=160
2G]	2B-]	1G]	1g]
2G	2B-y	.	.
2F	2A	1r	1r
2D	2d	.	.
=161	=161	=161	=161
2F	2d	2r	1r
2E	2c#i	2e	.
1D	1d	2f	2.a
.	.	2d	.
.	.	.	4a
=162	=162	=162	=162
0r	0r	2.g	2b-y
.	.	.	2dd
.	.	4f	.
.	.	1e	2dd
.	.	.	2cc#i
=163	=163	=163	=163
1.G	1r	0d	0dd
.	[1d	.	.
2G	.	.	.
=164	=164	=164	=164
2F	2d]	0r	0r
2D	2d	.	.
1F	2c	.	.
.	2A	.	.
=165	=165	=165	=165
1E	1c	0r	0r
[1D	1B-y	.	.
=166	=166	=166	=166
2D]	2A	0r	0r
2BB-y	1d	.	.
1E-i	.	.	.
.	[2c	.	.
=167	=167	=167	=167
1D	2c]	0r	1r
.	1B-y	.	.
1C	.	.	1cc
.	2A	.	.
=168	=168	=168	=168
2BB-y	2B-y	0f	2.dd
1B-y	1d	.	.
.	.	.	4cc
.	.	.	4b-y
.	.	.	4a
2F	2A	.	[2cc
=169	=169	=169	=169
1G	1B-y	2d	2cc]
.	.	2e	1b-y
1F	1c	1f	.
.	.	.	2a
=170	=170	=170	=170
2r	1B-y	1d	2.b-y
1G	.	.	.
.	.	.	4a
.	2.d	2r	4g
.	.	.	4f
2D	.	[2d	[2a
.	4c	.	.
=171	=171	=171	=171
1E	2B-y	2d]	2a]
.	4A	2c	1g
.	4G	.	.
1D	1A	1d	.
.	.	.	2f#i
=	=	=	=
*M3/1	*M3/1	*M3/1	*M3/1
*met(3)	*met(3)	*met(3)	*met(3)
0G	0G	0d	0g
1r	1r	1r	1r
=172	=172	=172	=172
0G	0B-y	0d	0g
1G	1B-y	1d	1g
=173	=173	=173	=173
0F	0c	0f	0a
1B-y	1d	1f	1b-y
=174	=174	=174	=174
1F	0c	1f	0a
0G	.	1d	.
.	1B-y	1e	1g
=175	=175	=175	=175
0F	0c	0f	0a
1r	1r	1r	1r
=176	=176	=176	=176
0F	0c	0f	0a
1F	1c	1f	1a
=177	=177	=177	=177
0G	1B-y	1d	1b-y
.	1B-y	1d	1b-y
1G	1B-y	1e	1b-y
=178	=178	=178	=178
1F	0c	1f	1a
1C	.	1e	1.g
1D	1A	[1d	.
.	.	.	2f
=179	=179	=179	=179
1BB-y	1B-y	1d]	0f
0C	0G	0c	.
.	.	.	1e
=	=	=	=
*M2/1	*M2/1	*M2/1	*M2/1
*met(C|)	*met(C|)	*met(C|)	*met(C|)
[0F	0F	0c	1f
.	.	.	2r
.	.	.	[2cc
=180	=180	=180	=180
0F]	0r	2r	2cc]
.	.	1f	2cc
.	.	.	2cc
.	.	2f	2cc
=181	=181	=181	=181
0r	0r	2f	2.a
.	.	2d	.
.	.	.	4b-y
.	.	2e	2cc
.	.	[2f	[2dd
=182	=182	=182	=182
0r	0r	2f]	2dd]
.	.	2e	1cc
.	.	1d	.
.	.	.	2bni
=183	=183	=183	=183
1r	2r	0c	0cc
.	1c	.	.
2r	.	.	.
[2F	2c	.	.
=184	=184	=184	=184
2F]	2c	0r	0r
2F	2c	.	.
2F	2.A	.	.
2D	.	.	.
.	4B-y	.	.
=185	=185	=185	=185
2E	2c	0r	0r
2.F	2.d	.	.
4E	4c	.	.
4D	[2c	.	.
4C	.	.	.
=186	=186	=186	=186
1D	2c]	1f	1r
.	2Bni	.	.
1C	[1c	1e	2r
.	.	.	2g
=187	=187	=187	=187
2r	0c_	1e	2g
2C	.	.	2g
2F	.	1f	1a
2F	.	.	.
=188	=188	=188	=188
1C	0c_	2r	2r
.	.	2e	2g
2r	.	2e	2g
2C	.	2e	2g
=189	=189	=189	=189
2F	1c]	1f	2.a
2F	.	.	.
.	.	.	8gL
.	.	.	8aJ
4BB-y	1d	1f	2b-y
4C	.	.	.
4D	.	.	[2a
4E	.	.	.
=190	=190	=190	=190
2F	2c	2f	2a]
2G	2B-y	2d	1g
1D	1A	[1d	.
.	.	.	2f#i
=191	=191	=191	=191
2r	2G	2d]	1g
2G	2B-y	2d	.
2G	2B-y	2d	2r
2G	2B-y	2d	2g
=192	=192	=192	=192
2C	[0c	1e	2g
2C	.	.	2g
2F	.	2r	1a
2F	.	2f	.
=193	=193	=193	=193
1C	0c]	1e	2r
.	.	.	2g
2r	.	1e	2g
2C	.	.	2g
=194	=194	=194	=194
2F	1c	1f	1a
2F	.	.	.
4BB-y	1d	[1f	2b-y
4C	.	.	.
4D	.	.	[2a
4E	.	.	.
=195	=195	=195	=195
2F	2c	2f]	2a]
2G	2B-y	2d	1g
1D	1A	1d	.
.	.	.	2f#i
=196	=196	=196	=196
0E	0G	1B-y	2g
.	.	.	2.b-y
.	.	1c	.
.	.	.	4a
.	.	.	[2g
=197	=197	=197	=197
0D	0A	0d	2g]
.	.	.	4f#i
.	.	.	4e
.	.	.	1f#i
=198	=198	=198	=198
00GGl	00Gl	00dl	00gl
==	==	==	==
*-	*-	*-	*-
!!!system-decoration: [*]
!!!RDF**kern: i = editorial accidental
!!!RDF**kern: l = terminal long
!!!ENC: Benjamin Ory
!!!END: 2023/1/24
!!!EED: Benjamin Ory
!!!EEV: 2023/01/24
!!!YEC: Copyright 2023 Benjamin Ory, All Rights Reserved
!!!ONB: Translated from MusicXML on 2023/01/24
